Numix/64/apps/goa-account-flickr.svg

<?xml version="1.0" encoding="UTF-8" standalone="yes"?>
<svg xmlns="http://www.w3.org/2000/svg" xmlns:xlink="http://www.w3.org/1999/xlink" width="64px" height="64px" viewBox="0 0 48 48" version="1.1">
  <g id="surface1">
    <path style=" stroke:none;fill-rule:nonzero;fill:rgb(39.607843%,57.254902%,76.470588%);fill-opacity:1;" d="M 23 24 C 23 27.316406 20.3125 30 17 30 C 13.6875 30 11 27.316406 11 24 C 11 20.6875 13.6875 18.003906 17 18.003906 C 20.3125 18.003906 23 20.6875 23 24 Z M 23 24 "/>
    <path style=" stroke:none;fill-rule:nonzero;fill:rgb(94.509804%,25.882353%,65.490196%);fill-opacity:1;" d="M 37 24 C 36.996094 27.3125 34.3125 29.996094 31 29.996094 C 27.6875 29.996094 25 27.3125 25 24 C 25 20.6875 27.683594 18 31 18 C 34.3125 18 37 20.6875 37 24 Z M 37 24 "/>
  </g>
</svg>

<svg xmlns="http://www.w3.org/2000/svg" width="64" height="64" viewBox="0 0 48 48">
 <g>
  <path d="m 23 24 c 0 3.316 -2.688 6 -6 6 c -3.313 0 -6 -2.684 -6 -6 c 0 -3.313 2.688 -5.996 6 -5.996 c 3.313 0 6 2.684 6 5.996 m 0 0" style="fill:#6492c2;fill-opacity:1;stroke:none;fill-rule:nonzero"/>
  <path d="m 37 24 c -0.004 3.313 -2.688 5.996 -6 5.996 c -3.313 0 -6 -2.684 -6 -5.996 c 0 -3.313 2.684 -6 6 -6 c 3.313 0 6 2.688 6 6 m 0 0" style="fill:#f142a6;fill-opacity:1;stroke:none;fill-rule:nonzero"/>
 </g>
</svg>
